X: 1217
T: An Dro
R: reel
M: 4/4
K: Eminor
B3c B2A2|G2F2 E2FG|A2A2 F2D2|EFGA B4|
B3c B2A2|G2F2 E2FG|A2A2 F2D2|EFGF E4||
B2d2 E4|B2d2 F4|A2A2 F2D2|EFGA B4|
B2d2 E4|B2d2 F4|A2A2 F2D2|EFGF E4||
E2DE F2A2|GFED E2G2|E2DE F2A2|GFED E4|
E2DE F2A2|GFED EFGF|E2DE F2A2|GFED E4||
B2AB c2A2|A2GA B2G2|E2DE F2A2|GFED EFGA|
B2AB c2A2|A2GA B2G2|E2DE F2A2|GFED E4||

